src/components/stable/gux-icon/icons/cc-disconnected-system.svg

<svg viewBox="0 0 22 28" fill="none" xmlns="http://www.w3.org/2000/svg">
  <path d="M5.38192 14.8647L5.99312 16.0926L10.1044 12.2976L9.32703 10.6792L11.7718 8.27998C12.4384 7.38684 12.5492 6.15891 11.8272 4.70846L10.1054 1.30383C9.4388 -0.0353578 7.88311 -0.425787 6.71609 0.522976C4.93786 1.97343 3.6047 3.98323 2.93812 6.21556C2.49407 7.72265 2.66021 9.34101 3.38217 10.7358L5.38192 14.8657V14.8647ZM21.7695 24.5748C21.103 23.2356 20.4364 21.9521 19.7698 20.6129C19.2694 19.6085 18.2141 18.9945 17.1035 18.9945L13.4927 19.0502L12.4374 16.9857L21.3819 8.72604C21.8823 8.27998 21.8823 7.49811 21.4373 6.99642C20.9922 6.49472 20.2149 6.49371 19.7154 6.94078L0.382556 24.7984C-0.117883 25.1888 -0.117883 25.9707 0.327176 26.4724C0.549705 26.7515 0.882996 26.8628 1.21629 26.8628C1.4942 26.8628 1.82749 26.7515 2.05002 26.528L8.32716 20.7242L10.1054 24.2957C10.772 25.6905 11.939 26.7515 13.3829 27.3089C15.6052 28.1464 18.1054 28.202 20.383 27.588C21.7162 27.2532 22.3828 25.7461 21.7716 24.5748H21.7695Z"/>
</svg>

<svg viewBox="0 0 22 28" fill="none" xmlns="http://www.w3.org/2000/svg"><path d="M5.382 14.865l.611 1.228 4.111-3.795-.777-1.619 2.445-2.399c.666-.893.777-2.121.055-3.572l-1.722-3.404C9.44-.036 7.883-.426 6.716.523a11.707 11.707 0 00-3.778 5.693 6.09 6.09 0 00.444 4.52l2 4.13v-.001zm16.387 9.71c-.666-1.34-1.333-2.623-2-3.962-.5-1.005-1.555-1.619-2.665-1.619l-3.611.056-1.056-2.064 8.945-8.26c.5-.446.5-1.228.055-1.73-.445-.501-1.222-.502-1.722-.055L.383 24.798c-.5.39-.5 1.173-.056 1.674.223.28.556.39.89.39.277 0 .61-.11.833-.334l6.277-5.804 1.778 3.572a5.997 5.997 0 003.278 3.013c2.222.837 4.722.893 7 .279 1.333-.335 2-1.842 1.389-3.013h-.002z"/></svg>
